app/assets/img/ic-edit-blue.svg

<svg fill="none" height="24" viewBox="0 0 23 24" width="23" xmlns="http://www.w3.org/2000/svg"><g fill="#276ce5"><path d="m19.0002 23.6668h-16.33337c-1.28683 0-2.333334-1.0465-2.333334-2.3333v-16.33338c0-1.28567 1.046504-2.33334 2.333334-2.33334h8.16667v2.33334h-8.16667v16.33338h16.33337v-10.5h2.3333v10.5c0 1.2868-1.0465 2.3333-2.3333 2.3333z"/><path d="m9.44283 10.0926 3.29937 3.2982-4.1242.8248z"/><path d="m21.8165 4.31645c.9112-.91117.9112-2.38817 0-3.29933-.9112-.911172-2.3882-.911172-3.2993 0l-7.4247 7.42467 3.3005 3.30051z"/></g></svg>

<svg width="23" height="24" viewBox="0 0 23 24" fill="none" xmlns="http://www.w3.org/2000/svg">
<path d="M19.0002 23.6668H2.66683C1.38 23.6668 0.333496 22.6203 0.333496 21.3335V5.00012C0.333496 3.71445 1.38 2.66678 2.66683 2.66678H10.8335V5.00012H2.66683V21.3335H19.0002V10.8335H21.3335V21.3335C21.3335 22.6203 20.287 23.6668 19.0002 23.6668Z" fill="#276CE5"/>
<path d="M9.44283 10.0926L12.7422 13.3908L8.618 14.2156L9.44283 10.0926Z" fill="#276CE5"/>
<path d="M21.8165 4.31645C22.7277 3.40528 22.7277 1.92828 21.8165 1.01712C20.9053 0.105948 19.4283 0.105948 18.5172 1.01712L11.0925 8.44179L14.393 11.7423L21.8165 4.31645Z" fill="#276CE5"/>
</svg>
